svg/blobs-icons/no-decorations/judge-gavel.svg

<svg xmlns="http://www.w3.org/2000/svg" xmlns:xlink="http://www.w3.org/1999/xlink" preserveAspectRatio="xMidYMid" width="217" height="213" viewBox="0 0 217 213"><defs><style>.cls-3{fill:#0cb04a}.cls-4{fill:#020403;opacity:.35}.cls-5{fill:#142a3b}</style></defs><g id="group-119svg"><path d="M206.904 184.377S204.057 184.377 204.057 184.377C204.786 182.351 205.218 180.085 205.218 177.609 205.218 169.043 200.458 162.58 194.144 162.58h-42.07C145.874 162.58 141.006 169.176 141.006 177.609 141.006 180.061 141.46 182.34 142.21 184.377H139.307C133.624 184.377 129.335 190.512 129.335 198.65S133.624 212.921 139.307 212.921h67.597C212.595 212.921 216.883 206.788 216.883 198.65S212.595 184.377 206.904 184.377z" id="path-1" class="cls-3" fill-rule="evenodd"/><path d="M206.904 184.378S204.057 184.378 204.057 184.378C204.786 182.351 205.218 180.085 205.218 177.609c0-8.566-4.75999999999999-15.027-11.074-15.027h-42.07C149.2 162.582 146.641 164.04 144.692 166.399h37.997C189.002 166.399 193.763 172.86 193.763 181.427 193.763 183.902 193.329 186.17 192.601 188.196H195.448C201.139 188.196 205.427 194.33 205.427 202.468c0 4.22800000000001-1.173 7.887-3.083 10.453h4.56C212.595 212.921 216.883 206.787 216.883 198.65 216.883 190.512 212.595 184.378 206.904 184.378z" id="path-2" class="cls-4" fill-rule="evenodd"/><path d="M137.824 127.519s13.078 12.618 13.078 12.618C150.885 140.395 150.83 140.64 150.83 140.897c0 3.845 1.511 7.477 4.255 10.215 2.749 2.749 6.381 4.261 10.225 4.261C169.05 155.373 172.551 153.927 175.173 151.31l28.731-28.732C206.531 119.961 207.979 116.449 207.979 112.715 207.979 108.866 206.466 105.234 203.717 102.485 200.968 99.725 197.194 98.366 193.448 98.378L176.455 81.969C176.247 81.585 176.05 81.191 175.715 80.857l-49.65-49.652C125.956 31.091 125.807 31.052 125.692 30.953l-15.35-14.824C110.117 15.91 109.827 15.789 109.57 15.625 109.641 15.016 109.75 14.421 109.75 13.796c0-3.745-1.456-7.257-4.074-9.869-5.334-5.346-14.731-5.237-20.165.225L55.692 33.976c-2.777 2.76-4.305 6.42-4.305 10.286.0 3.747 1.442 7.257 4.066 9.886 2.615 2.613 6.12 4.058 9.872 4.058C66.138 58.206 66.932 58.102 67.715 57.97 67.953 58.457 68.236 58.923 68.644 59.318L84.252 74.401C84.46 74.592 84.723 74.696 84.952 74.849l15.959 15.965S1.392 190.327 1.392 190.327C.504 191.213.009 192.407.009 193.667.009 194.916.504 196.109 1.392 196.996L15.94 211.543C16.861 212.462 18.065 212.921 19.271 212.921 20.481 212.921 21.688 212.462 22.61 211.543l99.518-99.513s15.121 15.1 15.121 15.1C137.418 127.305 137.637 127.382 137.824 127.519z" id="path-3" class="cls-5" fill-rule="evenodd"/><path d="M65.325 58.205C66.138 58.205 66.932 58.102 67.715 57.97 67.953 58.457 68.236 58.923 68.644 59.318L84.252 74.402C84.46 74.592 84.723 74.696 84.952 74.849L100.911 90.81S110.457 81.265 110.457 81.265s-25.505-25.51-25.505-25.51C84.723 55.603 84.46 55.498 84.252 55.307L68.644 40.224C68.236 39.83 67.953 39.364 67.715 38.877 66.932 39.008 66.138 39.113 65.325 39.113 61.573 39.113 58.068 37.666 55.453 35.054 55.331 34.931 55.245 34.784 55.128 34.657c-2.386 2.673-3.741 6.035-3.741 9.605.0 3.747 1.442 7.256 4.066 9.886C58.068 56.76 61.573 58.205 65.325 58.205z" id="path-4" class="cls-4" fill-rule="evenodd"/><path d="M203.903 103.486s-28.73 28.731-28.73 28.731C172.55 134.834 169.05 136.281 165.31 136.281 161.466 136.281 157.834 134.768 155.085 132.02 152.341 129.281 150.83 125.649 150.83 121.804 150.83 121.547 150.885 121.301 150.902 121.043l-13.078-12.618C137.637 108.288 137.418 108.213 137.249 108.036L122.128 92.937S22.61 192.449 22.61 192.449C21.688 193.368 20.481 193.829 19.271 193.829c-1.206.0-2.41-.461000000000013-3.331-1.38L7.603 184.114S1.392 190.327 1.392 190.327C.504 191.213.009 192.407.009 193.666.009 194.916.504 196.109 1.392 196.996L15.94 211.543C16.861 212.462 18.065 212.921 19.271 212.921 20.481 212.921 21.688 212.462 22.61 211.543l99.518-99.513s15.121 15.1 15.121 15.1C137.418 127.306 137.637 127.382 137.824 127.519l13.078 12.618C150.885 140.395 150.83 140.64 150.83 140.897c0 3.845 1.511 7.477 4.255 10.215 2.749 2.749 6.381 4.261 10.225 4.261C169.05 155.373 172.55 153.927 175.173 151.31l28.73-28.732C206.531 119.961 207.978 116.449 207.978 112.715c0-3.583-1.358-6.94800000000001-3.756-9.617C204.107 103.222 204.024 103.366 203.903 103.486z" id="path-5" class="cls-4" fill-rule="evenodd"/></g></svg>

<svg xmlns="http://www.w3.org/2000/svg" xmlns:xlink="http://www.w3.org/1999/xlink" preserveAspectRatio="xMidYMid" width="217" height="213" viewBox="0 0 217 213">
  <defs>
    <style>

      .cls-3 {
        fill: #0cb04a;
      }

      .cls-4 {
        fill: #020403;
        opacity: 0.35;
      }

      .cls-5 {
        fill: #142a3b;
      }
    </style>
  </defs>
  <g id="group-119svg">
    <path d="M206.904,184.377 C206.904,184.377 204.057,184.377 204.057,184.377 C204.786,182.351 205.218,180.085 205.218,177.609 C205.218,169.043 200.458,162.580 194.144,162.580 C194.144,162.580 152.074,162.580 152.074,162.580 C145.874,162.580 141.006,169.176 141.006,177.609 C141.006,180.061 141.460,182.340 142.210,184.377 C142.210,184.377 139.307,184.377 139.307,184.377 C133.624,184.377 129.335,190.512 129.335,198.650 C129.335,206.788 133.624,212.921 139.307,212.921 C139.307,212.921 206.904,212.921 206.904,212.921 C212.595,212.921 216.883,206.788 216.883,198.650 C216.883,190.512 212.595,184.377 206.904,184.377 Z" id="path-1" class="cls-3" fill-rule="evenodd"/>
    <path d="M206.904,184.378 C206.904,184.378 204.057,184.378 204.057,184.378 C204.786,182.351 205.218,180.085 205.218,177.609 C205.218,169.043 200.458,162.582 194.144,162.582 C194.144,162.582 152.074,162.582 152.074,162.582 C149.200,162.582 146.641,164.040 144.692,166.399 C144.692,166.399 182.689,166.399 182.689,166.399 C189.002,166.399 193.763,172.860 193.763,181.427 C193.763,183.902 193.329,186.170 192.601,188.196 C192.601,188.196 195.448,188.196 195.448,188.196 C201.139,188.196 205.427,194.330 205.427,202.468 C205.427,206.696 204.254,210.355 202.344,212.921 C202.344,212.921 206.904,212.921 206.904,212.921 C212.595,212.921 216.883,206.787 216.883,198.650 C216.883,190.512 212.595,184.378 206.904,184.378 Z" id="path-2" class="cls-4" fill-rule="evenodd"/>
    <path d="M137.824,127.519 C137.824,127.519 150.902,140.137 150.902,140.137 C150.885,140.395 150.830,140.640 150.830,140.897 C150.830,144.742 152.341,148.374 155.085,151.112 C157.834,153.861 161.466,155.373 165.310,155.373 C169.050,155.373 172.551,153.927 175.173,151.310 C175.173,151.310 203.904,122.578 203.904,122.578 C206.531,119.961 207.979,116.449 207.979,112.715 C207.979,108.866 206.466,105.234 203.717,102.485 C200.968,99.725 197.194,98.366 193.448,98.378 C193.448,98.378 176.455,81.969 176.455,81.969 C176.247,81.585 176.050,81.191 175.715,80.857 C175.715,80.857 126.065,31.205 126.065,31.205 C125.956,31.091 125.807,31.052 125.692,30.953 C125.692,30.953 110.342,16.129 110.342,16.129 C110.117,15.910 109.827,15.789 109.570,15.625 C109.641,15.016 109.750,14.421 109.750,13.796 C109.750,10.051 108.294,6.539 105.676,3.927 C100.342,-1.419 90.945,-1.310 85.511,4.152 C85.511,4.152 55.692,33.976 55.692,33.976 C52.915,36.736 51.387,40.396 51.387,44.262 C51.387,48.009 52.829,51.519 55.453,54.148 C58.068,56.761 61.573,58.206 65.325,58.206 C66.138,58.206 66.932,58.102 67.715,57.970 C67.953,58.457 68.236,58.923 68.644,59.318 C68.644,59.318 84.252,74.401 84.252,74.401 C84.460,74.592 84.723,74.696 84.952,74.849 C84.952,74.849 100.911,90.814 100.911,90.814 C100.911,90.814 1.392,190.327 1.392,190.327 C0.504,191.213 0.009,192.407 0.009,193.667 C0.009,194.916 0.504,196.109 1.392,196.996 C1.392,196.996 15.940,211.543 15.940,211.543 C16.861,212.462 18.065,212.921 19.271,212.921 C20.481,212.921 21.688,212.462 22.610,211.543 C22.610,211.543 122.128,112.030 122.128,112.030 C122.128,112.030 137.249,127.130 137.249,127.130 C137.418,127.305 137.637,127.382 137.824,127.519 Z" id="path-3" class="cls-5" fill-rule="evenodd"/>
    <path d="M65.325,58.205 C66.138,58.205 66.932,58.102 67.715,57.970 C67.953,58.457 68.236,58.923 68.644,59.318 C68.644,59.318 84.252,74.402 84.252,74.402 C84.460,74.592 84.723,74.696 84.952,74.849 C84.952,74.849 100.911,90.810 100.911,90.810 C100.911,90.810 110.457,81.265 110.457,81.265 C110.457,81.265 84.952,55.755 84.952,55.755 C84.723,55.603 84.460,55.498 84.252,55.307 C84.252,55.307 68.644,40.224 68.644,40.224 C68.236,39.830 67.953,39.364 67.715,38.877 C66.932,39.008 66.138,39.113 65.325,39.113 C61.573,39.113 58.068,37.666 55.453,35.054 C55.331,34.931 55.245,34.784 55.128,34.657 C52.742,37.330 51.387,40.692 51.387,44.262 C51.387,48.009 52.829,51.518 55.453,54.148 C58.068,56.760 61.573,58.205 65.325,58.205 Z" id="path-4" class="cls-4" fill-rule="evenodd"/>
    <path d="M203.903,103.486 C203.903,103.486 175.173,132.217 175.173,132.217 C172.550,134.834 169.050,136.281 165.310,136.281 C161.466,136.281 157.834,134.768 155.085,132.020 C152.341,129.281 150.830,125.649 150.830,121.804 C150.830,121.547 150.885,121.301 150.902,121.043 C150.902,121.043 137.824,108.425 137.824,108.425 C137.637,108.288 137.418,108.213 137.249,108.036 C137.249,108.036 122.128,92.937 122.128,92.937 C122.128,92.937 22.610,192.449 22.610,192.449 C21.688,193.368 20.481,193.829 19.271,193.829 C18.065,193.829 16.861,193.368 15.940,192.449 C15.940,192.449 7.603,184.114 7.603,184.114 C7.603,184.114 1.392,190.327 1.392,190.327 C0.504,191.213 0.009,192.407 0.009,193.666 C0.009,194.916 0.504,196.109 1.392,196.996 C1.392,196.996 15.940,211.543 15.940,211.543 C16.861,212.462 18.065,212.921 19.271,212.921 C20.481,212.921 21.688,212.462 22.610,211.543 C22.610,211.543 122.128,112.030 122.128,112.030 C122.128,112.030 137.249,127.130 137.249,127.130 C137.418,127.306 137.637,127.382 137.824,127.519 C137.824,127.519 150.902,140.137 150.902,140.137 C150.885,140.395 150.830,140.640 150.830,140.897 C150.830,144.742 152.341,148.374 155.085,151.112 C157.834,153.861 161.466,155.373 165.310,155.373 C169.050,155.373 172.550,153.927 175.173,151.310 C175.173,151.310 203.903,122.578 203.903,122.578 C206.531,119.961 207.978,116.449 207.978,112.715 C207.978,109.132 206.620,105.767 204.222,103.098 C204.107,103.222 204.024,103.366 203.903,103.486 Z" id="path-5" class="cls-4" fill-rule="evenodd"/>
  </g>
</svg>
